client/img/icon/solid/copy.svg

<?xml version="1.0" encoding="UTF-8"?>
<svg width="32px" height="32px" viewBox="0 0 32 32" version="1.1" xmlns="http://www.w3.org/2000/svg" xmlns:xlink="http://www.w3.org/1999/xlink">
    <!-- Generator: sketchtool 47 (45396) - http://www.bohemiancoding.com/sketch -->
    <title>icon/solid/copy</title>
    <desc>Created with sketchtool.</desc>
    <defs>
        <path d="M23.0015,21 L13.0005,21 L13.0005,7 L19.0005,7 L19.0005,11 L23.0005,11 L23.0015,21 Z M20.4145,5 L25.0005,9.586 L25.0005,21 C25.0005,22.102 24.1035,23 23.0005,23 L13.0005,23 C11.8975,23 11.0005,22.102 11.0005,21 L11.0005,7 C11.0005,5.898 11.8975,5 13.0005,5 L20.4145,5 Z M9,9 L9,25 L21,25 L21,27 L9,27 C7.897,27 7,26.102 7,25 L7,9 L9,9 Z" id="path-1"></path>
    </defs>
    <g id="Symbols" stroke="none" stroke-width="1" fill="none" fill-rule="evenodd">
        <g id="icon/solid/copy">
            <mask id="mask-2" fill="white">
                <use xlink:href="#path-1"></use>
            </mask>
            <use id="copy" fill="#000000" xlink:href="#path-1"></use>
            <g id="color/solid/primary" mask="url(#mask-2)" fill="#4A90E2">
                <g transform="translate(-22.000000, -25.000000)" id="color">
                    <rect x="0" y="0" width="80" height="80"></rect>
                </g>
            </g>
        </g>
    </g>
</svg>

<?xml version="1.0" encoding="utf-8"?>
<!-- Generator: Adobe Illustrator 23.0.0, SVG Export Plug-In . SVG Version: 6.00 Build 0)  -->
<svg version="1.1" id="Layer_1" xmlns="http://www.w3.org/2000/svg" xmlns:xlink="http://www.w3.org/1999/xlink" x="0px" y="0px"
	 viewBox="0 0 32 32" style="enable-background:new 0 0 32 32;" xml:space="preserve">
<style type="text/css">
	.st0{fill-rule:evenodd;clip-rule:evenodd;}
</style>
<g>
	<path class="st0" d="M23,21H13V7h6v4h4L23,21z M20.4,5L25,9.6V21c0,1.1-0.9,2-2,2H13c-1.1,0-2-0.9-2-2V7c0-1.1,0.9-2,2-2H20.4z
		 M9,9v16h12v2H9c-1.1,0-2-0.9-2-2V9H9z"/>
</g>
</svg>
